X:112
T: TING TANG TRALLALA WER IST IN MEINEM THORE
N: K2138
O: Europa, Mitteleuropa, Deutschland, Oberdiebach am Rhein
R: Kinder - Lied, Reigen, Tanz - Spiel
M: 2/4
L: 1/8
K: G
 | d2e2 | dGG
G | ddee | d2B
G | ddGe | dBG2 |
d2e2 | d4 |
d2d2B4 | d2d2B4 | d2d2B4
d2d2e2e2 | d2d2B4

@@@ Tune index: 7449
